assets/img/icon-instagram.svg

<svg fill="none" height="25" viewBox="0 0 25 25" width="25" xmlns="http://www.w3.org/2000/svg"><g fill="#ff903f"><path d="m12.495 2.25198c3.3383 0 3.7302.01489 5.0496.07441 1.2203.05456 1.88.25794 2.3215.43155.5853.22817 1.002.49603 1.4385.93254.4365.4365.7093.85317.9325 1.43849.1687.44147.377 1.10119.4316 2.32143.0595 1.31944.0744 1.71131.0744 5.0496 0 3.3383-.0149 3.7302-.0744 5.0496-.0546 1.2202-.258 1.88-.4316 2.3214-.2282.5854-.496 1.002-.9325 1.4385s-.8532.7093-1.4385.9326c-.4415.1686-1.1012.3769-2.3215.4315-1.3194.0595-1.7113.0744-5.0496.0744-3.33825 0-3.73012-.0149-5.04956-.0744-1.22024-.0546-1.87996-.2579-2.32143-.4315-.58532-.2282-1.00199-.4961-1.43849-.9326-.43651-.4365-.70933-.8531-.93254-1.4385-.16865-.4414-.37699-1.1012-.43155-2.3214-.05953-1.3194-.07441-1.7113-.07441-5.0496 0-3.33829.01488-3.73016.07441-5.0496.05456-1.22024.25794-1.87996.43155-2.32143.22817-.58532.49603-1.00199.93254-1.43849.4365-.43651.85317-.70933 1.43849-.93254.44147-.16865 1.10119-.37699 2.32143-.43155 1.31944-.06449 1.71627-.07441 5.04956-.07441zm0-2.25198c-3.39282 0-3.8194.014881-5.15373.0744048-1.32937.0595242-2.2371.2728172-3.03075.5803572-.82342.31746-1.51786.749008-2.21231 1.443448-.69444.69445-1.121027 1.39385-1.443448 2.21231-.30754.79365-.520833 1.70139-.5803572 3.03571-.0595238 1.32937-.0744048 1.75595-.0744048 5.14877 0 3.3929.014881 3.8195.0744048 5.1538.0595242 1.3294.2728172 2.2371.5803572 3.0357.31746.8234.749008 1.5179 1.443448 2.2123.69445.6945 1.39385 1.1211 2.21231 1.4435.79365.3075 1.70139.5208 3.03571.5803 1.33433.0596 1.75595.0744 5.15377.0744 3.3978 0 3.8194-.0148 5.1538-.0744 1.3293-.0595 2.2371-.2728 3.0357-.5803.8234-.3175 1.5178-.749 2.2123-1.4435.6944-.6944 1.121-1.3938 1.4434-2.2123.3076-.7936.5209-1.7014.5804-3.0357s.0744-1.7559.0744-5.1538c0-3.39778-.0149-3.8194-.0744-5.15373-.0595-1.32937-.2728-2.2371-.5804-3.03571-.3174-.82342-.749-1.51786-1.4434-2.21231-.6945-.69444-1.3939-1.121028-2.2123-1.443448-.7937-.30754-1.7014-.520834-3.0357-.5803576-1.3393-.0545634-1.7659-.0694444-5.1588-.0694444z"/><path d="m12.495 6.08136c-3.54163 0-6.41861 2.87202-6.41861 6.41864 0 3.5466 2.87202 6.4187 6.41861 6.4187 3.5467 0 6.4187-2.8721 6.4187-6.4187 0-3.54662-2.872-6.41864-6.4187-6.41864zm0 10.58034c-2.3015 0-4.16663-1.8651-4.16663-4.1667 0-2.3015 1.86513-4.16662 4.16663-4.16662 2.3016 0 4.1667 1.86512 4.1667 4.16662 0 2.3016-1.8651 4.1667-4.1667 4.1667z"/><path d="m19.1667 7.32144c.8273 0 1.498-.67068 1.498-1.49801 0-.82734-.6707-1.49802-1.498-1.49802-.8274 0-1.498.67068-1.498 1.49802 0 .82733.6706 1.49801 1.498 1.49801z"/></g></svg>

<svg width="25" height="25" viewBox="0 0 25 25" fill="none" xmlns="http://www.w3.org/2000/svg">
<path d="M12.495 2.25198C15.8333 2.25198 16.2252 2.26687 17.5446 2.32639C18.7649 2.38095 19.4246 2.58433 19.8661 2.75794C20.4514 2.98611 20.8681 3.25397 21.3046 3.69048C21.7411 4.12698 22.0139 4.54365 22.2371 5.12897C22.4058 5.57044 22.6141 6.23016 22.6687 7.4504C22.7282 8.76984 22.7431 9.16171 22.7431 12.5C22.7431 15.8383 22.7282 16.2302 22.6687 17.5496C22.6141 18.7698 22.4107 19.4296 22.2371 19.871C22.0089 20.4564 21.7411 20.873 21.3046 21.3095C20.8681 21.746 20.4514 22.0188 19.8661 22.2421C19.4246 22.4107 18.7649 22.619 17.5446 22.6736C16.2252 22.7331 15.8333 22.748 12.495 22.748C9.15675 22.748 8.76488 22.7331 7.44544 22.6736C6.2252 22.619 5.56548 22.4157 5.12401 22.2421C4.53869 22.0139 4.12202 21.746 3.68552 21.3095C3.24901 20.873 2.97619 20.4564 2.75298 19.871C2.58433 19.4296 2.37599 18.7698 2.32143 17.5496C2.2619 16.2302 2.24702 15.8383 2.24702 12.5C2.24702 9.16171 2.2619 8.76984 2.32143 7.4504C2.37599 6.23016 2.57937 5.57044 2.75298 5.12897C2.98115 4.54365 3.24901 4.12698 3.68552 3.69048C4.12202 3.25397 4.53869 2.98115 5.12401 2.75794C5.56548 2.58929 6.2252 2.38095 7.44544 2.32639C8.76488 2.2619 9.16171 2.25198 12.495 2.25198ZM12.495 0C9.10218 0 8.6756 0.014881 7.34127 0.0744048C6.0119 0.133929 5.10417 0.347222 4.31052 0.654762C3.4871 0.972222 2.79266 1.40377 2.09821 2.09821C1.40377 2.79266 0.977183 3.49206 0.654762 4.31052C0.347222 5.10417 0.133929 6.01191 0.0744048 7.34623C0.014881 8.6756 0 9.10218 0 12.495C0 15.8879 0.014881 16.3145 0.0744048 17.6488C0.133929 18.9782 0.347222 19.8859 0.654762 20.6845C0.972222 21.5079 1.40377 22.2024 2.09821 22.8968C2.79266 23.5913 3.49206 24.0179 4.31052 24.3403C5.10417 24.6478 6.01191 24.8611 7.34623 24.9206C8.68056 24.9802 9.10218 24.995 12.5 24.995C15.8978 24.995 16.3194 24.9802 17.6538 24.9206C18.9831 24.8611 19.8909 24.6478 20.6895 24.3403C21.5129 24.0228 22.2073 23.5913 22.9018 22.8968C23.5962 22.2024 24.0228 21.503 24.3452 20.6845C24.6528 19.8909 24.8661 18.9831 24.9256 17.6488C24.9851 16.3145 25 15.8929 25 12.495C25 9.09722 24.9851 8.6756 24.9256 7.34127C24.8661 6.0119 24.6528 5.10417 24.3452 4.30556C24.0278 3.48214 23.5962 2.7877 22.9018 2.09325C22.2073 1.39881 21.5079 0.972222 20.6895 0.649802C19.8958 0.342262 18.9881 0.128968 17.6538 0.0694444C16.3145 0.014881 15.8879 0 12.495 0Z" fill="#FF903F"/>
<path d="M12.495 6.08136C8.95337 6.08136 6.07639 8.95338 6.07639 12.5C6.07639 16.0466 8.94841 18.9187 12.495 18.9187C16.0417 18.9187 18.9137 16.0466 18.9137 12.5C18.9137 8.95338 16.0417 6.08136 12.495 6.08136ZM12.495 16.6617C10.1935 16.6617 8.32837 14.7966 8.32837 12.495C8.32837 10.1935 10.1935 8.32838 12.495 8.32838C14.7966 8.32838 16.6617 10.1935 16.6617 12.495C16.6617 14.7966 14.7966 16.6617 12.495 16.6617Z" fill="#FF903F"/>
<path d="M19.1667 7.32144C19.994 7.32144 20.6647 6.65076 20.6647 5.82343C20.6647 4.99609 19.994 4.32541 19.1667 4.32541C18.3393 4.32541 17.6687 4.99609 17.6687 5.82343C17.6687 6.65076 18.3393 7.32144 19.1667 7.32144Z" fill="#FF903F"/>
</svg>
